<?xml version="1.0" encoding="UTF-8"?>
<map version="1.10" tiledversion="1.11.2" orientation="orthogonal" renderorder="right-down" width="16" height="16" tilewidth="16" tileheight="16" infinite="0" nextlayerid="9" nextobjectid="72">
 <tileset firstgid="1" source="tilesets/Level1_DungeonEnvironment.tsx"/>
 <tileset firstgid="1025" source="tilesets/Dungeon_Tileset.tsx"/>
 <tileset firstgid="1125" source="tilesets/Level1_DungeonEnvironment.tsx"/>
 <layer id="1" name="floor" width="16" height="16">
  <data encoding="csv">
0,0,0,0,0,0,0,0,0,0,0,0,0,0,0,0,
0,1036,1036,1036,1036,1036,1036,1036,1036,1036,1036,1036,1036,1036,1036,0,
0,1036,1036,1036,1036,1036,1036,1036,1036,1036,1036,1036,1036,1036,1036,0,
1036,1036,1036,1036,1036,1036,1036,1036,1036,1036,1036,1036,1036,1036,1036,0,
1036,1036,1036,1036,1036,1036,1036,1036,1036,1036,1036,1036,1036,1036,1036,0,
1036,1036,1036,1036,1036,1036,1036,1036,1036,1036,1036,1036,1036,1036,1036,0,
1036,1036,1036,1036,1036,1036,1036,1036,1036,1036,1036,1036,1036,1036,1036,0,
1036,1036,1036,1036,1036,1036,1036,1036,1036,1036,1036,1036,1036,1036,1036,0,
1036,1036,1036,1036,1036,1036,1036,1036,1036,1036,1036,1036,1036,1036,1036,0,
0,1036,1036,1036,1036,1036,1036,1036,1036,1036,1036,1036,1036,1036,1036,0,
0,0,0,0,1036,1036,1036,1036,1036,1036,1036,0,0,0,0,0,
0,0,0,0,0,1036,1036,1036,1036,1036,1036,0,0,0,0,0,
0,0,0,0,0,1036,1036,1036,1036,1036,1036,0,0,0,0,0,
0,0,0,0,0,1036,1036,1036,1036,1036,1036,0,0,0,0,0,
0,0,0,0,0,0,0,0,0,0,0,0,0,0,0,0,
0,0,0,0,0,0,0,0,0,0,0,0,0,0,0,0
</data>
 </layer>
 <layer id="2" name="wall" width="16" height="16">
  <data encoding="csv">
1025,1026,1028,1028,1027,1027,1027,1027,1028,1028,1026,1027,1029,1028,1029,1030,
1025,0,0,0,0,1025,0,0,0,0,0,0,0,0,0,1040,
1035,0,0,0,0,1025,0,0,0,0,0,0,0,0,0,1030,
1055,0,0,0,0,1035,0,0,0,0,0,0,0,0,0,1030,
1035,0,0,0,0,1045,0,0,0,0,0,0,0,0,0,1030,
1035,1026,1026,0,0,1026,0,0,0,0,0,0,0,0,0,1030,
1035,0,0,0,0,0,0,0,0,0,0,0,0,0,0,1030,
1035,0,0,0,0,0,0,0,0,0,0,0,0,0,0,1030,
1045,0,0,0,0,0,0,0,0,0,0,0,0,0,0,1040,
1045,0,0,0,0,0,0,0,0,0,0,0,0,0,0,1030,
1065,1066,1069,1069,1080,1027,1028,0,0,1027,1028,1079,1069,1069,1069,1070,
0,0,0,0,1035,0,0,0,0,0,0,1040,0,0,0,0,
0,0,0,0,1045,0,0,0,0,0,0,1050,0,0,0,0,
0,0,0,0,1055,0,0,0,0,0,0,1060,0,0,0,0,
0,0,0,0,1065,1066,1067,1068,1067,1068,1069,1070,0,0,0,0,
0,0,0,0,0,0,0,0,0,0,0,0,0,0,0,0
</data>
 </layer>
 <layer id="4" name="elements" width="16" height="16">
  <data encoding="csv">
0,0,0,0,0,0,0,0,1100,0,1115,0,1100,0,0,0,
0,1118,0,0,0,0,0,0,0,0,0,0,0,1113,0,0,
0,0,0,1109,0,0,0,1102,0,0,0,0,1111,1110,0,0,
0,1124,0,0,0,0,0,0,0,0,0,0,1111,1111,0,0,
0,0,0,0,0,0,1116,0,0,0,0,0,0,0,0,0,
0,0,0,1061,1062,0,0,0,0,0,1120,0,0,0,0,0,
0,0,0,0,0,0,0,0,0,0,0,0,0,1102,0,0,
0,0,0,0,0,0,0,0,0,0,0,0,1123,1122,0,0,
0,0,0,0,1102,0,0,0,0,0,0,0,1108,1108,0,0,
0,0,0,0,0,0,0,0,0,0,0,0,0,0,0,0,
0,0,0,0,0,0,0,1091,1092,0,0,0,0,0,0,0,
0,0,0,0,0,0,0,0,0,0,0,0,0,0,0,0,
0,0,0,0,0,0,1063,0,0,0,0,0,0,0,0,0,
0,0,0,0,0,0,0,0,0,0,0,0,0,0,0,0,
0,0,0,0,0,0,0,0,0,0,0,0,0,0,0,0,
0,0,0,0,0,0,0,0,0,0,0,0,0,0,0,0
</data>
 </layer>
 <objectgroup id="3" name="colisions">
  <object id="2" x="200" y="41.5" width="1">
   <ellipse/>
  </object>
  <object id="6" x="194.25" y="130.5" width="11.5" height="11"/>
  <object id="7" x="210.5" y="130.5" width="10.5" height="11.25"/>
  <object id="8" x="212" y="36.5" width="8.25" height="8.25"/>
  <object id="11" x="50" y="34" width="12.5" height="11.5"/>
  <object id="17" x="21.75" y="17.75" width="5.25" height="14.25">
   <ellipse/>
  </object>
  <object id="18" x="165" y="82.25" width="7" height="14">
   <ellipse/>
  </object>
  <object id="35" x="48.25" y="80.75" width="31.5" height="15">
   <properties>
    <property name="key?" type="bool" value="false"/>
   </properties>
  </object>
  <object id="36" x="112.75" y="161" width="31.5" height="14.75">
   <properties>
    <property name="key?" type="bool" value="false"/>
   </properties>
  </object>
  <object id="39" x="9.5" y="0.75" width="236.75" height="15.25"/>
  <object id="41" x="9.75" y="160.25" width="102.25" height="16.75"/>
  <object id="42" x="9" y="16.25" width="6.75" height="143.75"/>
  <object id="43" x="85.25" y="16.75" width="10.75" height="78.75"/>
  <object id="44" x="16.75" y="79.5" width="30.75" height="16.75"/>
  <object id="45" x="73" y="177.25" width="6.75" height="46.5"/>
  <object id="46" x="71.75" y="224.25" width="112" height="17"/>
  <object id="47" x="176.75" y="177.5" width="7.25" height="46.25"/>
  <object id="49" x="240.5" y="16.75" width="6" height="143.5"/>
  <object id="69" x="144.875" y="159.875" width="102.25" height="16.75"/>
  <object id="71" x="96.75" y="192.5" width="14.75" height="14.5"/>
 </objectgroup>
 <objectgroup id="5" name="objetos">
  <object id="21" x="200" y="41.5" width="1">
   <ellipse/>
  </object>
  <object id="52" x="217.25" y="57.25">
   <point/>
  </object>
  <object id="53" x="200" y="56.25">
   <point/>
  </object>
  <object id="54" x="200" y="39.75">
   <point/>
  </object>
  <object id="55" x="217.5" y="25.5">
   <point/>
  </object>
  <object id="56" x="25" y="56.5">
   <point/>
  </object>
  <object id="57" x="201.75" y="122.5">
   <point/>
  </object>
  <object id="58" x="216.25" y="120.75">
   <point/>
  </object>
  <object id="62" x="50" y="35.5" width="11.75" height="9.75">
   <properties>
    <property name="isOpen?" type="bool" value="false"/>
   </properties>
  </object>
  <object id="63" x="211.75" y="37" width="8.75" height="8.5">
   <properties>
    <property name="isOpen?" type="bool" value="false"/>
   </properties>
  </object>
  <object id="64" x="194.75" y="130.25" width="10.75" height="11">
   <properties>
    <property name="isOpen?" type="bool" value="false"/>
   </properties>
  </object>
  <object id="65" x="210" y="130.25" width="11.5" height="11.5">
   <properties>
    <property name="isOpen?" type="bool" value="false"/>
   </properties>
  </object>
 </objectgroup>
 <objectgroup id="6" name="enemigos">
  <object id="67" x="136" y="74.25">
   <point/>
  </object>
  <object id="68" x="55.75" y="22.75">
   <point/>
  </object>
 </objectgroup>
</map>
